icons/file-code-16.svg

<svg xmlns="http://www.w3.org/2000/svg" width="16" height="16" viewBox="0 0 16 16"><path d="M4 1.75C4 .784 4.784 0 5.75 0h5.586c.464 0 .909.184 1.237.513l2.914 2.914c.329.328.513.773.513 1.237v8.586A1.75 1.75 0 0114.25 15h-9a.75.75 0 010-1.5h9a.25.25 0 00.25-.25V6h-2.75A1.75 1.75 0 0110 4.25V1.5H5.75a.25.25 0 00-.25.25v2.5a.75.75 0 01-1.5 0zm1.72 4.97a.75.75 0 011.06 0l2 2a.75.75 0 010 1.06l-2 2a.749.749 0 01-1.275-.326.749.749 0 01.215-.734l1.47-1.47-1.47-1.47a.75.75 0 010-1.06zM3.28 7.78L1.81 9.25l1.47 1.47a.751.751 0 01-.018 1.042.751.751 0 01-1.042.018l-2-2a.75.75 0 010-1.06l2-2a.751.751 0 011.042.018.751.751 0 01.018 1.042zm8.22-6.218V4.25c0 .138.112.25.25.25h2.688l-.011-.013-2.914-2.914-.013-.011z"/></svg>

<svg xmlns="http://www.w3.org/2000/svg" width="16" height="16" viewBox="0 0 16 16">
  <defs/>
  <path d="M4,1.75 C4,0.784 4.784,0 5.75,0 L11.336,0 C11.8,0 12.245,0.184 12.573,0.513 L15.487,3.427 C15.816,3.755 16,4.2 16,4.664 L16,13.25 C16,14.216 15.216,15 14.25,15 L5.25,15 C4.836,15 4.5,14.664 4.5,14.25 C4.5,13.836 4.836,13.5 5.25,13.5 L14.25,13.5 C14.388,13.5 14.5,13.388 14.5,13.25 L14.5,6 L11.75,6 C10.784,6 10,5.216 10,4.25 L10,1.5 L5.75,1.5 C5.612,1.5 5.5,1.612 5.5,1.75 L5.5,4.25 C5.5,4.664 5.164,5 4.75,5 C4.336,5 4,4.664 4,4.25 Z M5.72,6.72 C6.013,6.428 6.487,6.428 6.78,6.72 L8.78,8.72 C9.072,9.013 9.072,9.487 8.78,9.78 L6.78,11.78 C6.593,11.981 6.311,12.063 6.046,11.995 C5.78,11.928 5.572,11.72 5.505,11.454 C5.437,11.189 5.519,10.907 5.72,10.72 L7.19,9.25 L5.72,7.78 C5.428,7.487 5.428,7.013 5.72,6.72 Z M3.28,7.78 L1.81,9.25 L3.28,10.72 C3.555,11.016 3.547,11.476 3.262,11.762 C2.976,12.047 2.516,12.055 2.22,11.78 L0.22,9.78 C-0.072,9.487 -0.072,9.013 0.22,8.72 L2.22,6.72 C2.516,6.445 2.976,6.453 3.262,6.738 C3.547,7.024 3.555,7.484 3.28,7.78 Z M11.5,1.562 L11.5,4.25 C11.5,4.388 11.612,4.5 11.75,4.5 L14.438,4.5 C14.434,4.496 14.431,4.491 14.427,4.487 L11.513,1.573 C11.509,1.569 11.504,1.566 11.5,1.562 Z"/>
</svg>
